svg/canary-checker.svg

<?xml version="1.0" encoding="UTF-8"?>
<svg xmlns="http://www.w3.org/2000/svg" xmlns:xlink="http://www.w3.org/1999/xlink" width="32" height="32" viewBox="0 0 32 32">
<path fill-rule="nonzero" fill="rgb(19.215686%, 41.960784%, 89.803922%)" fill-opacity="1" d="M 23.9375 11.1875 C 23.070312 10.3125 21.886719 9.820312 20.652344 9.824219 C 19.421875 9.824219 18.238281 10.3125 17.371094 11.1875 L 15.96875 12.589844 L 14.566406 11.1875 C 13.699219 10.3125 12.515625 9.820312 11.28125 9.824219 C 10.046875 9.820312 8.867188 10.3125 8 11.1875 C 6.941406 12.242188 6.457031 13.742188 6.695312 15.21875 L 7.832031 15.21875 C 7.957031 15.21875 8.167969 15.105469 8.230469 15 L 8.242188 14.980469 L 8.703125 14.394531 C 8.953125 14.015625 9.273438 14.015625 9.394531 14.027344 C 9.523438 14.046875 9.84375 14.136719 9.976562 14.59375 L 10.855469 17.515625 L 12.941406 12.800781 C 13.140625 12.34375 13.464844 12.3125 13.601562 12.320312 C 13.726562 12.328125 14.054688 12.398438 14.195312 12.871094 L 16.550781 20.71875 L 18.679688 15.980469 C 18.902344 15.527344 19.355469 15.234375 19.859375 15.21875 L 22.816406 15.21875 C 23.082031 15.21875 23.296875 15.433594 23.296875 15.699219 C 23.296875 15.964844 23.082031 16.179688 22.816406 16.179688 L 19.859375 16.179688 C 19.730469 16.195312 19.617188 16.269531 19.550781 16.378906 L 17.105469 21.804688 C 16.921875 22.222656 16.628906 22.277344 16.480469 22.277344 C 16.46875 22.277344 16.453125 22.273438 16.441406 22.273438 C 16.3125 22.265625 15.988281 22.195312 15.847656 21.722656 L 13.492188 13.886719 L 11.40625 18.609375 C 11.207031 19.066406 10.878906 19.097656 10.746094 19.089844 C 10.617188 19.078125 10.292969 19.007812 10.152344 18.535156 L 9.191406 15.316406 L 9.019531 15.546875 C 8.773438 15.917969 8.261719 16.1875 7.828125 16.1875 L 6.957031 16.1875 C 7.1875 16.769531 7.539062 17.304688 7.992188 17.761719 L 15.960938 25.726562 L 23.9375 17.753906 C 24.816406 16.886719 25.304688 15.703125 25.300781 14.46875 C 25.304688 13.238281 24.8125 12.054688 23.9375 11.1875 M 9.816406 27.78125 L 9.734375 27.78125 C 8.863281 27.78125 8.152344 28.488281 8.152344 29.355469 C 8.152344 30.226562 8.859375 30.9375 9.734375 30.9375 C 10.605469 30.9375 11.308594 30.234375 11.308594 29.355469 C 11.308594 28.960938 11.160156 28.59375 10.917969 28.320312 L 13.921875 22.085938 C 13.542969 21.933594 13.210938 21.671875 12.859375 21.472656 Z M 9.734375 30.078125 C 9.460938 30.097656 9.203125 29.964844 9.0625 29.730469 C 8.921875 29.5 8.921875 29.207031 9.0625 28.976562 C 9.234375 28.699219 9.566406 28.570312 9.878906 28.660156 C 10.214844 28.757812 10.429688 29.082031 10.394531 29.429688 C 10.359375 29.777344 10.082031 30.050781 9.734375 30.078125 M 3.230469 18.707031 C 2.9375 18.292969 2.460938 18.046875 1.953125 18.046875 C 1.082031 18.046875 0.378906 18.753906 0.378906 19.628906 C 0.378906 20.046875 0.542969 20.449219 0.839844 20.742188 C 1.257812 21.15625 1.867188 21.304688 2.429688 21.125 C 2.988281 20.949219 3.402344 20.476562 3.507812 19.898438 L 9.101562 18.617188 C 8.984375 18.226562 8.722656 17.875 8.660156 17.464844 Z M 1.953125 20.351562 C 1.6875 20.363281 1.4375 20.226562 1.304688 19.996094 C 1.167969 19.769531 1.167969 19.484375 1.304688 19.257812 C 1.472656 18.980469 1.804688 18.847656 2.117188 18.933594 C 2.429688 19.019531 2.648438 19.304688 2.652344 19.628906 C 2.652344 20.019531 2.34375 20.339844 1.953125 20.351562 M 20.109375 29.371094 C 20.109375 29.03125 20.191406 28.703125 20.339844 28.410156 L 11.589844 28.410156 C 11.738281 28.703125 11.820312 29.023438 11.820312 29.355469 C 11.820312 29.964844 11.566406 30.503906 11.148438 30.886719 L 20.769531 30.886719 C 20.347656 30.496094 20.105469 29.945312 20.109375 29.371094 M 6.796875 7.441406 C 6.796875 7.496094 6.792969 7.546875 6.789062 7.597656 L 14.808594 3.730469 C 14.042969 3.214844 13.707031 2.261719 13.984375 1.382812 L 5.453125 5.496094 C 6.261719 5.800781 6.796875 6.578125 6.796875 7.441406 M 17.132812 3.734375 L 25.144531 7.597656 C 25.140625 7.535156 25.140625 7.476562 25.140625 7.429688 C 25.140625 6.546875 25.691406 5.789062 26.46875 5.488281 L 17.964844 1.394531 C 18.023438 1.59375 18.0625 1.796875 18.0625 2.011719 C 18.054688 2.703125 17.707031 3.347656 17.132812 3.734375 M 27.21875 9.511719 C 27.019531 9.511719 26.824219 9.480469 26.636719 9.425781 L 28.609375 18.070312 C 29.300781 17.449219 30.320312 17.363281 31.105469 17.859375 L 28.980469 8.550781 C 28.59375 9.148438 27.929688 9.507812 27.21875 9.511719 M 21.011719 28.320312 C 20.597656 28.78125 20.496094 29.445312 20.75 30.011719 C 21.003906 30.582031 21.5625 30.945312 22.183594 30.949219 C 23.054688 30.949219 23.757812 30.246094 23.757812 29.371094 C 23.757812 28.953125 23.59375 28.550781 23.296875 28.257812 C 23.003906 27.960938 22.601562 27.796875 22.183594 27.796875 L 22.113281 27.796875 L 19.117188 21.574219 C 18.765625 21.773438 18.417969 22.003906 18.035156 22.15625 Z M 22.1875 28.644531 C 22.585938 28.644531 22.910156 28.96875 22.910156 29.371094 C 22.910156 29.769531 22.585938 30.09375 22.1875 30.09375 C 21.789062 30.089844 21.46875 29.769531 21.464844 29.371094 C 21.46875 28.972656 21.789062 28.648438 22.1875 28.644531 M 28.082031 20.449219 L 22.597656 27.328125 C 23.5 27.507812 24.191406 28.269531 24.269531 29.203125 L 30.257812 21.691406 C 29.335938 21.804688 28.453125 21.300781 28.082031 20.449219 M 6.226562 7.878906 C 6.265625 7.742188 6.292969 7.597656 6.292969 7.441406 C 6.292969 6.574219 5.585938 5.863281 4.710938 5.863281 C 3.839844 5.863281 3.136719 6.566406 3.136719 7.441406 C 3.136719 7.996094 3.429688 8.511719 3.90625 8.796875 C 4.382812 9.078125 4.972656 9.09375 5.460938 8.832031 L 8.570312 11.316406 C 8.804688 10.980469 9.070312 10.664062 9.335938 10.363281 Z M 4.710938 8.167969 C 4.519531 8.167969 4.332031 8.09375 4.199219 7.957031 C 4.0625 7.820312 3.984375 7.632812 3.988281 7.441406 C 4.003906 7.054688 4.324219 6.753906 4.710938 6.753906 C 5.097656 6.753906 5.414062 7.054688 5.433594 7.441406 C 5.4375 7.636719 5.363281 7.824219 5.222656 7.957031 C 5.089844 8.097656 4.902344 8.175781 4.710938 8.167969 M 3.335938 18.066406 L 5.304688 9.441406 C 5.113281 9.496094 4.910156 9.523438 4.710938 9.523438 C 3.980469 9.523438 3.335938 9.144531 2.964844 8.570312 L 0.84375 17.867188 C 1.628906 17.375 2.640625 17.457031 3.335938 18.066406 M 9.335938 27.316406 L 3.867188 20.453125 C 3.492188 21.300781 2.609375 21.804688 1.691406 21.691406 L 7.660156 29.175781 C 7.742188 28.25 8.425781 27.492188 9.335938 27.316406 M 16.574219 12.664062 L 16.574219 3.46875 C 17.261719 3.175781 17.648438 2.441406 17.503906 1.707031 C 17.359375 0.976562 16.71875 0.445312 15.972656 0.433594 C 15.105469 0.433594 14.398438 1.140625 14.398438 2.015625 C 14.398438 2.667969 14.796875 3.226562 15.359375 3.46875 L 15.359375 12.671875 C 15.570312 12.660156 15.78125 12.652344 15.992188 12.652344 C 16.1875 12.644531 16.382812 12.652344 16.574219 12.664062 M 15.25 2.007812 C 15.25 1.609375 15.574219 1.28125 15.976562 1.28125 C 16.375 1.285156 16.699219 1.609375 16.699219 2.007812 C 16.695312 2.40625 16.375 2.730469 15.972656 2.734375 C 15.574219 2.730469 15.25 2.40625 15.25 2.007812 M 29.996094 18.046875 C 29.464844 18.046875 29 18.308594 28.710938 18.707031 L 23.230469 17.476562 C 23.167969 17.882812 22.777344 18.203125 22.664062 18.585938 L 28.441406 19.902344 C 28.582031 20.707031 29.316406 21.269531 30.132812 21.199219 C 30.945312 21.128906 31.570312 20.445312 31.570312 19.628906 C 31.570312 18.753906 30.867188 18.046875 29.996094 18.046875 M 29.996094 20.34375 C 29.710938 20.367188 29.441406 20.21875 29.304688 19.96875 C 29.167969 19.71875 29.191406 19.410156 29.363281 19.183594 C 29.546875 18.945312 29.851562 18.84375 30.140625 18.925781 C 30.476562 19.023438 30.691406 19.347656 30.65625 19.695312 C 30.621094 20.042969 30.34375 20.316406 29.996094 20.34375 M 26.484375 8.824219 C 26.699219 8.941406 26.957031 9.003906 27.21875 9.003906 C 27.859375 9.003906 28.4375 8.621094 28.679688 8.03125 C 28.925781 7.441406 28.792969 6.761719 28.339844 6.308594 C 27.886719 5.855469 27.207031 5.722656 26.617188 5.96875 C 26.027344 6.214844 25.644531 6.789062 25.644531 7.429688 C 25.644531 7.585938 25.671875 7.738281 25.707031 7.878906 L 22.46875 10.464844 C 22.746094 10.765625 23.125 10.988281 23.355469 11.320312 Z M 27.21875 6.707031 C 27.601562 6.703125 27.917969 7 27.949219 7.378906 C 27.976562 7.761719 27.703125 8.097656 27.324219 8.152344 C 26.925781 8.179688 26.578125 7.882812 26.550781 7.480469 C 26.519531 7.082031 26.820312 6.734375 27.21875 6.707031 M 27.21875 6.707031 "/>
</svg>

<svg role="img" viewBox="0 0 32 32" xmlns="http://www.w3.org/2000/svg"><path d="M23.938 11.188a4.606 4.606 0 0 0-3.286-1.364 4.62 4.62 0 0 0-3.28 1.364l-1.403 1.402-1.403-1.402a4.606 4.606 0 0 0-3.285-1.364A4.597 4.597 0 0 0 8 11.188a4.644 4.644 0 0 0-1.305 4.03h1.137c.125 0 .336-.113.398-.218l.012-.02.461-.585c.25-.38.57-.38.692-.368.128.02.449.11.582.567l.878 2.922 2.086-4.715c.2-.457.524-.489.66-.48.126.007.454.077.594.55l2.356 7.848 2.129-4.739a1.361 1.361 0 0 1 1.18-.761h2.956a.48.48 0 1 1 0 .96H19.86a.42.42 0 0 0-.308.2l-2.446 5.426c-.183.418-.476.472-.625.472-.011 0-.027-.004-.039-.004-.128-.007-.453-.078-.593-.55l-2.356-7.836-2.086 4.722c-.199.457-.527.489-.66.48-.129-.01-.453-.081-.594-.554l-.96-3.219-.172.23c-.247.372-.758.642-1.192.642h-.871c.23.582.582 1.117 1.035 1.574l7.969 7.965 7.977-7.973a4.59 4.59 0 0 0 1.363-3.285 4.603 4.603 0 0 0-1.363-3.281M9.816 27.78h-.082c-.87 0-1.582.707-1.582 1.574 0 .872.707 1.582 1.582 1.582.871 0 1.575-.703 1.575-1.582 0-.394-.149-.761-.391-1.035l3.004-6.234c-.379-.152-.711-.414-1.063-.613Zm-.082 2.297a.726.726 0 0 1-.672-1.102.724.724 0 0 1 .817-.316c.336.098.55.422.516.77a.722.722 0 0 1-.66.648M3.23 18.707a1.565 1.565 0 0 0-1.277-.66c-.871 0-1.574.707-1.574 1.582 0 .418.164.82.46 1.113a1.58 1.58 0 0 0 2.668-.844l5.595-1.28c-.118-.391-.38-.743-.442-1.153Zm-1.277 1.645a.712.712 0 0 1-.648-.356.716.716 0 0 1 0-.738.726.726 0 0 1 1.347.37.724.724 0 0 1-.699.724m18.156 9.02c0-.34.082-.669.23-.962h-8.75c.15.293.231.613.231.945 0 .61-.254 1.149-.672 1.532h9.622a2.052 2.052 0 0 1-.66-1.516M6.796 7.441c0 .055 0 .106-.008.157l8.02-3.868a2.076 2.076 0 0 1-.825-2.347l-8.53 4.113a2.076 2.076 0 0 1 1.343 1.945m10.336-3.707 8.012 3.864c-.004-.063-.004-.121-.004-.168 0-.883.55-1.64 1.328-1.942l-8.504-4.093c.058.199.098.402.098.617a2.09 2.09 0 0 1-.93 1.722m10.086 5.778c-.2 0-.395-.032-.582-.086l1.972 8.644a2.083 2.083 0 0 1 2.496-.21L28.98 8.55a2.111 2.111 0 0 1-1.761.962M21.012 28.32a1.572 1.572 0 0 0-.262 1.692c.254.57.813.933 1.434.937.87 0 1.574-.703 1.574-1.578 0-.418-.164-.82-.461-1.113a1.563 1.563 0 0 0-1.113-.461h-.07l-2.997-6.223c-.351.2-.699.43-1.082.582Zm1.175.325a.724.724 0 0 1 0 1.45.729.729 0 0 1-.722-.724.732.732 0 0 1 .723-.726m5.894-8.196-5.484 6.88c.902.179 1.593.94 1.672 1.874l5.988-7.512a2.087 2.087 0 0 1-2.176-1.242M6.227 7.88c.039-.137.066-.281.066-.438 0-.867-.707-1.578-1.582-1.578-.871 0-1.574.703-1.574 1.578 0 .555.293 1.07.77 1.356a1.586 1.586 0 0 0 1.554.035l3.11 2.484c.234-.336.5-.652.765-.953Zm-1.516.289a.721.721 0 0 1-.723-.727.722.722 0 0 1 .723-.687c.387 0 .703.3.723.687a.687.687 0 0 1-.211.516.684.684 0 0 1-.512.211m-1.375 9.898 1.969-8.625a2.178 2.178 0 0 1-.594.082c-.73 0-1.375-.378-1.746-.953L.844 17.867a2.092 2.092 0 0 1 2.492.2m6 9.25-5.469-6.864a2.1 2.1 0 0 1-2.176 1.238l5.97 7.485a2.083 2.083 0 0 1 1.675-1.86m7.238-14.652V3.47a1.581 1.581 0 0 0-.601-3.035c-.868 0-1.575.707-1.575 1.582 0 .652.399 1.21.961 1.453v9.203c.211-.012.422-.02.633-.02.195-.007.39 0 .582.012M15.25 2.008c0-.399.324-.727.727-.727a.73.73 0 0 1 .722.727.728.728 0 0 1-.726.726.727.727 0 0 1-.723-.726m14.746 16.039c-.531 0-.996.262-1.285.66l-5.48-1.23c-.063.406-.454.726-.567 1.109l5.777 1.316a1.577 1.577 0 0 0 3.13-.273c0-.875-.704-1.582-1.575-1.582m0 2.297a.725.725 0 0 1-.633-1.16.726.726 0 0 1 .778-.258c.336.097.55.422.515.77a.722.722 0 0 1-.66.648m-3.512-11.52c.215.117.473.18.735.18.64 0 1.218-.383 1.46-.973a1.576 1.576 0 0 0-2.062-2.062 1.58 1.58 0 0 0-.972 1.46c0 .157.027.31.062.45l-3.238 2.586c.277.3.656.523.886.855Zm.735-2.117a.726.726 0 0 1 .105 1.445.724.724 0 0 1-.105-1.445m0 0" fill="rgb(19.215686%, 41.960784%, 89.803922%)"/></svg>
